svg/UnitedNationsOCHA-Humanitarian/product_type_report_icon_box.svg

<svg xmlns="http://www.w3.org/2000/svg" viewBox="0 0 32 32" enable-background="new 0 0 32 32"><path fill="#407cca" d="m25.6 0h-19.2c-3.52 0-6.4 2.88-6.4 6.4v19.2c0 3.52 2.88 6.4 6.4 6.4h19.2c3.521 0 6.4-2.88 6.4-6.4v-19.2c0-3.52-2.88-6.4-6.4-6.4m-.356 28h-18.488v-24h11.75l6.738 6.994v17.01m-3.249-17.575h-3.173v-3.294l3.173 3.294m-4.633-4.478h-8.66v20.11h14.597v-14.173h-5.937v-5.937m3.863 16.09h-10.447v-.972h10.446v.972zm0-4.04h-10.447v-.972h10.446v.972zm0-5.01v.975h-10.447v-.975h10.447"/></svg>

<?xml version="1.0" encoding="utf-8"?>
<!-- Generator: Adobe Illustrator 16.0.3, SVG Export Plug-In . SVG Version: 6.00 Build 0)  -->
<!DOCTYPE svg PUBLIC "-//W3C//DTD SVG 1.1//EN" "http://www.w3.org/Graphics/SVG/1.1/DTD/svg11.dtd">
<svg version="1.1" id="Layer_1" xmlns="http://www.w3.org/2000/svg" xmlns:xlink="http://www.w3.org/1999/xlink" x="0px" y="0px"
	 width="32px" height="32px" viewBox="0 0 32 32" enable-background="new 0 0 32 32" xml:space="preserve">
<path fill="#407CCA" d="M25.6,0H6.4C2.88,0,0,2.88,0,6.4v19.2C0,29.12,2.88,32,6.4,32h19.2c3.521,0,6.4-2.88,6.4-6.4V6.4
	C32,2.88,29.12,0,25.6,0z M25.244,28H6.756V4h11.75l6.738,6.994V28z M21.995,10.425h-3.173V7.131L21.995,10.425z M17.362,5.947
	H8.702v20.11h14.597V11.884h-5.937V5.947z M21.225,22.034H10.778v-0.972h10.446V22.034z M21.225,17.997H10.778v-0.972h10.446V17.997
	z M21.225,12.987v0.975H10.778v-0.975H21.225z"/>
</svg>
